!!!COM: Bach, Johann Sebastian
!!!OPR: Joh. Seb. Bachs vierstimmige Choralges‰nge
!!!XEN: Four-part Chorales
!!!OTL: 27. Christ, unser Herr, zum Jordan kam
!!!SCT: BWV 280
!!!SCA: Thematisch-systematisches Verzeichnis der musikalischen Werke Johann Sebastian Bach: Bach-Werke-Verzeichnis (Schmieder)
!!!YOR: Bach Gesellschaft Edition xxxix
!!!ENC: Steven Rasmussen
!!!CDT: 1685/3//-1750/7/28/
!!!OCY: Deutschland
!!!YEC: Copyright (c) 1994, 2000 Center for Computer Assisted Research in the Humanities
!!!YEM: Rights to all derivative editions reserved
!!!YEN: United States of America
**kern	**silbe	**kern	**kern	**kern
*I:[SOPRANO]	*I:[SOPRANO]	*I:[ALTO]	*I:[TENORE]	*I:[BASSO]
*>[A,A,B]	*	*>[A,A,B]	*>[A,A,B]	*>[A,A,B]
*>A	*	*>A	*>A	*>A
*clefG2	*	*clefG2	*clefGv2	*clefF4
*k[]	*	*k[]	*k[]	*k[]
*a:	*	*a:	*a:	*a:
*M4/4	*	*M4/4	*M4/4	*M4/4
8dL	Christ,von	4A	8FL	4D
8eJ	.	.	8GJ	.
=1	=1	=1	=1	=1
4f	un-Sankt	4d	8AL	4D
.	.	.	8BJ	.
4g	-serJo-	4e	4c	4C
4a	Herr,-hann's	4f	4c	4F
4g	zumdie	4e	8cL	4C
.	.	.	8BJ	.
=2	=2	=2	=2	=2
4cc	Jor-Tau-	4e	4A	8CL
.	.	.	.	8DJ
8bL	-dan-fe	4e	4G#	4E
8aJ	.	.	.	.
4a;	kamnahm,	4e;	4c;	4AA;
4g	nachsein	4e	4B	4E
=3	=3	=3	=3	=3
4cc	sei-Werk	4e	4A	4A
4b	-nesund	4e	8BL	4G
.	.	.	8c#J	.
4a	Va-Amt	8fL	4d	4F
.	.	8eJ	.	.
4g	-terszu	4d	8DL	8BBL
.	.	.	8EJ	8C#J
=4	=4	=4	=4	=4
4f	Wil-'rf√ºl-	8A	8FL	4D
.	.	4d	8GJ	.
4e	.	.	4A	4AA
.	.	8c#	.	.
4d;	-len,-len;	4A;	4F;	4D;
=:|!	=:|!	=:|!	=:|!	=:|!
*>B	*	*>B	*>B	*>B
4d	da	4A	8FL	8DL
.	.	.	8EJ	8CJ
=5	=5	=5	=5	=5
4g	wollt'	4d	4D	8BBL
.	.	.	.	8AAJ
4g	er	8cL	4G	4GG
.	.	8BJ	.	.
4e	stif-	8cL	4G	4C
.	.	8dJ	.	.
4a	-ten	4e	4c	8BBL
.	.	.	.	8AAJ
=6	=6	=6	=6	=6
4a	uns	4e	8BL	4E
.	.	.	8AJ	.
4g#	ein	4e	4B	4EE
4a;	Bad,	4e;	4c;	4AA;
4a	zu	4e	4c	8AL
.	.	.	.	8GJ
=7	=7	=7	=7	=7
4dd	wa-	4a	4c	4F#
4dd	-schen	4g	4B	4G
8eeL	uns	4g	8cL	4C
8ddJ	.	.	8BJ	.
4cc	von	8aL	4A	8FnL
.	.	8gJ	.	8EJ
=8	=8	=8	=8	=8
8ddL	S√ºn-	4f	8BL	4D
8ccJ	.	.	8AJ	.
4b	.	8BL	4G#	4E
.	.	16cL	.	.
.	.	16dJJ	.	.
4a;	-den,	4c;	4E;	4AA;
4b	er-	4e	4G#	4E
=9	=9	=9	=9	=9
4cc	-s√§u-	4e	8AL	4A
.	.	.	8GJ	.
4b	-fen	4d	8FL	8DL
.	.	.	8GJ	8EJ
4a	auch	8cL	8AL	4F
.	.	8dJ	8BJ	.
4g	den	4e	8c#L	8EL
.	.	.	8dJ	8DJ
=10	=10	=10	=10	=10
8aL	bit-	4A	4e	4C#
8gJ	.	.	.	.
4f	-tern	4d	4A	4D
4e;	Tod	4c#;	4A;	4AA;
8dL	durch	4A	8FL	8DL
8eJ	.	.	8EJ	8CnJ
=11	=11	=11	=11	=11
4f	sein	4d	8DL	8BB-L
.	.	.	8FJ	8AAJ
4g	selb's	4e	4B-	4GG
8aL	Blut	8eL	4A	4FF
8gJ	.	8c#J	.	.
4f	und	4d	4B-	8BB-L
.	.	.	.	8AAJ
=12	=12	=12	=12	=12
8gL	Wun-	8eL	4B-	4GG
8fJ	.	8dJ	.	.
4e	.	4c#	8EL	4AA
.	.	.	16FL	.
.	.	.	16GJJ	.
4d;	-den.	4A;	4F;	4DD;
4dd	Es	4a	4D	4F#
=13	=13	=13	=13	=13
4dd	galt	4g	8BL	8GL
.	.	.	8cJ	8AJ
4dd	ein	4g	8dL	8BL
.	.	.	8BJ	8GJ
4ee	neu-	4g	8cL	4C
.	.	.	8BJ	.
4dd	-es	8aL	4A	4F
.	.	8dJ	.	.
=14	=14	=14	=14	=14
4cc	Le-	4.e	4A	8EL
.	.	.	.	8DJ
4b	.	.	4G#	4E
.	.	8d	.	.
4a;	-ben.	4c#;	4E;	4AA;
==|!	==|!	==|!	==|!	==|!
*-	*-	*-	*-	*-
!!!RWG: Key is interpreted using the Humdrum key tool.
!!!END: 1994/05/11
!!!EMD: Converted from MuseData to Humdrum Dec 19, 2000, by Andreas Kornstaedt using muse2kern.
!!!EED: Craig Stuart Sapp
!!!EEV: 2024/03/31
!!!ONB: Some non-unicode characters
